!!!COM: Anon.
!!!OTL: Helena estava sentada
!!!OTL: Romanceiro Folclorico do Brasil
!!!CNT: Brasil
!!!OCY: Brasil
!!!ODT: <1971///
!!!PSR: Irmaos Vitale
!!!PSP: Sao Paulo, Brasil
!!!PDT: 1949///
!!!PPE: Rossini Tavares de Lima
!!!PPG: page 38-39
!! Romance: Santa Helena Ou Iria
!! Place: Cachoeira, Sao Paulo, Brasil
**kern
*clefG2
*k[b-e-a-]
*M3/4
*MM98
4g
=
2g
4g
=
4b-
4b-
4a-
=
2.g
=
2f
4f
=
2f
4d
=
2a-
4g
=
!! Abberation in the notation.
!! This note notated as half note.
!! May not be a dotted half as encoded here.
2.f
=
2e-
4c
=
2c
4e-
=
2g
4cc
=
2.cc
=
2a-
4a-
=
2b-
4b-
=
2bn
4b
=
2.cc
=
2g
4c
=
2c
4e-
=
2g
4cc
=
4cc
4g
4e-
=
2d
4f
=
2g
4f
=
4d
4d
4B
=
4c
4c
==
*-
